src/dsmComponents/Icons/log-in-12px.svg

<svg width="12" height="12" xmlns="http://www.w3.org/2000/svg" xmlns:xlink="http://www.w3.org/1999/xlink"><defs><path d="M10 0a2 2 0 012 2v8a2 2 0 01-2 2H4a2 2 0 01-2-2V8h2v2h6V2H4v2H2V2a2 2 0 012-2zM5 3l4 3-4 3V7H0V5h5V3z" id="log-in-12px_svg__a"/></defs><use fill="#737373" xlink:href="#log-in-12px_svg__a" fill-rule="evenodd"/></svg>

<?xml version="1.0" encoding="UTF-8"?>
<svg width="12px" height="12px" viewBox="0 0 12 12" version="1.1" xmlns="http://www.w3.org/2000/svg" xmlns:xlink="http://www.w3.org/1999/xlink">
    <!-- Generator: Sketch 59.1 (86144) - https://sketch.com -->
    <title>log-in-12px</title>
    <desc>Created with Sketch.</desc>
    <defs>
        <path d="M10,0 C11.1045695,0 12,0.8954305 12,2 L12,2 L12,10 C12,11.1045695 11.1045695,12 10,12 L10,12 L4,12 C2.8954305,12 2,11.1045695 2,10 L2,10 L2,8 L4,8 L4,10 L10,10 L10,2 L4,2 L4,4 L2,4 L2,2 C2,0.8954305 2.8954305,0 4,0 L4,0 Z M5,3 L9,6 L5,9 L5,7 L0,7 L0,5 L5,5 L5,3 Z" id="path-1"></path>
    </defs>
    <g id="Final" stroke="none" stroke-width="1" fill="none" fill-rule="evenodd">
        <g id="All-Nucleo-Icons" transform="translate(-174.000000, -4634.000000)">
            <g id="Solo/Nucleo/12px/log-in" transform="translate(168.000000, 4628.000000)">
                <g id="log-in" transform="translate(6.000000, 6.000000)">
                    <g id="Colour/Default-Colour-Copy">
                        <mask id="mask-2" fill="white">
                            <use xlink:href="#path-1"></use>
                        </mask>
                        <use id="Mask" fill="#000000" fill-rule="nonzero" xlink:href="#path-1"></use>
                        <g id="colour/neutral/chia" mask="url(#mask-2)" fill="#737373">
                            <g transform="translate(-25.000000, -26.000000)" id="Colour">
                                <rect x="0" y="0" width="64" height="64"></rect>
                            </g>
                        </g>
                    </g>
                </g>
            </g>
        </g>
    </g>
</svg>
